**kern	**kern	**dynam
*part1	*part1	*part1
*staff2	*staff1	*
*I"Piano	*	*
*clefF4	*clefG2	*
*k[b-e-a-d-]	*k[b-e-a-d-]	*
=1	=1	=1
*^	*^	*
!	!	!	!	!LO:DY:a
4AA-	2AA-	(2cc^	2.e-	<
4E-	.	.	.	.
4GG	4GG	4b-)	.	.
=	=	=	=	=
4FF	2FF	4.ee-^	2.e- 2.a-	.
4E-	.	.	.	.
.	.	8ddn	.	.
*v	*v	*	*	*
[4EE-	4ee-	.	[
=	=	=	=
*^	*	*	*
(4E-	2EE-]	(2dd-X	2.e- 2.g	.
4G	.	.	.	.
4B-	4r	4b-)	.	.
*	*	*v	*v	*
=	=	=	=
4e->	2.rc	2e-	.
4f>	.	.	.
4g>)	.	4d-	.
*v	*v	*	*
=	=	=
*	*^	*
2.AA-	2a-	4c 4a-	.
.	.	4e- 4g	.
.	4a-	4d- 4f	.
=	=	=	=
*^	*	*	*
4c	2.BB-	4.a-	4e-	.
4B-	.	.	4d-	.
.	.	8g	.	.
4A-	.	4b-	4c	.
=	=	=	=	=
4G	2.EE-	2dd-	4B-	.
4F	.	.	4A-	.
*	*	*v	*v	*
4E- 4G	.	4b-	.
*v	*v	*	*
=	=	=
*-	*-	*-
!!!system-decoration: {(s1,s2)}
!!!RDF**kern: > = above
